public/static/img/user/avatar1.svg

<svg width="40" height="40" viewBox="0 0 40 40" fill="none" xmlns="http://www.w3.org/2000/svg">
<circle cx="20" cy="20" r="20" fill="#00A609" fill-opacity="0.1"/>
<path d="M2 20C2 29.9381 10.0619 38 20 38C29.9381 38 38 29.9381 38 20C38 10.0619 29.9381 2 20 2C10.0619 2 2 10.0615 2 20Z" fill="#6C8CD6"/>
<path d="M17.2882 24.8731H22.9352V29.5332H17.2694L17.2882 24.8731ZM13.7028 18.6349C13.7028 19.4638 13.2014 20.1353 12.5698 20.1353C11.9383 20.1353 11.4385 19.4638 11.4385 18.6349C11.4385 17.8061 11.9399 17.135 12.5715 17.135C13.203 17.135 13.7045 17.8065 13.7045 18.6349M28.8065 18.6141C28.8065 19.4426 28.3047 20.1141 27.6731 20.1141C27.0416 20.1141 26.5389 19.4413 26.5389 18.6141C26.5389 17.7869 27.0404 17.1138 27.6719 17.1138C28.3034 17.1138 28.8065 17.8065 28.8065 18.6141Z" fill="#F8ECEC"/>
<path d="M17.2882 25.5415C17.2882 25.5415 18.3657 26.0985 19.9072 26.0985C21.7276 26.1731 22.9165 25.5602 22.9165 25.5602V26.1173C22.9165 26.1173 20.9106 27.1939 20.019 27.1939C19.1086 27.1939 17.2874 25.9307 17.2874 25.9307L17.2882 25.5415Z" fill="#E9CFCF"/>
<path d="M33.1328 32.2812C32.2228 31.5571 30.5969 29.5103 28.8878 28.6929C26.1199 27.3376 22.9162 27.7328 22.9162 27.7328V27.8237C22.6932 28.0654 21.5973 29.1419 20.1112 29.1419C18.6435 29.1419 17.5293 28.1395 17.2879 27.8787L17.2692 27.7487C17.2692 27.7487 13.7352 27.3351 10.9498 28.6904C9.0552 29.6191 7.70367 31.6476 6.88623 32.3529C8.56364 34.1429 10.5922 35.5682 12.8452 36.5397C15.0982 37.5113 17.5274 38.0084 19.9812 37.9999C25.1826 37.9812 29.8634 35.7905 33.1328 32.2812Z" fill="#485B80"/>
<path d="M27.4862 17.4143C27.4862 19.3347 26.9048 21.9374 25.9288 23.3436C24.5834 25.2816 21.5493 26.1773 20.1301 26.1773C18.6954 26.1773 15.9654 25.4467 14.6184 23.7324C13.4703 22.2707 12.7739 19.5161 12.7739 17.4163C12.7739 12.8492 16.062 9.13574 20.1301 9.13574C24.1981 9.13574 27.4862 12.8492 27.4862 17.4163" fill="#F8ECEC"/>
<path d="M28.1368 13.6223C28.1368 13.6223 28.0728 10.7634 26.442 8.72596C25.3029 7.30301 21.6719 6.27003 19.0716 6.47459C19.0716 6.47459 13.9782 6.67833 13.8722 10.0605C12.9414 10.6175 11.9849 11.5784 11.8826 13.1932C11.6787 16.4426 12.254 17.2966 12.254 17.2966C12.254 17.2966 13.0714 17.2966 13.2761 18.5216C13.2761 18.5216 13.6475 18.7449 13.6838 18.5216C13.7393 18.1503 13.3495 16.368 14.1294 14.7344C14.2256 14.5278 14.3219 14.3436 14.4148 14.1794C16.9687 11.34 24.4593 11.6342 26.2145 14.7388C26.2864 14.9549 26.3384 15.1771 26.3698 15.4026C26.5182 16.4621 26.7041 18.4661 26.7041 18.4661C26.7041 18.4661 26.9826 18.6515 27.1685 18.2062C27.3544 17.742 27.3173 17.2966 27.4845 17.1667C28.4336 16.5363 28.1923 13.9011 28.1368 13.6223Z" fill="#485B80"/>
</svg>

<svg width="40" height="40" fill="none" xmlns="http://www.w3.org/2000/svg"><circle cx="20" cy="20" r="20" fill="#00A609" fill-opacity=".1"/><path d="M2 20c0 9.938 8.062 18 18 18s18-8.062 18-18S29.938 2 20 2 2 10.062 2 20Z" fill="#6C8CD6"/><path d="M17.288 24.873h5.647v4.66H17.27l.02-4.66Zm-3.585-6.238c0 .829-.502 1.5-1.133 1.5-.632 0-1.132-.671-1.132-1.5s.502-1.5 1.133-1.5c.632 0 1.133.671 1.133 1.5m15.102-.02c0 .828-.501 1.5-1.133 1.5-.631 0-1.134-.674-1.134-1.5 0-.828.501-1.501 1.133-1.501.631 0 1.134.692 1.134 1.5Z" fill="#F8ECEC"/><path d="M17.288 25.541s1.078.558 2.62.558c1.82.074 3.008-.539 3.008-.539v.557s-2.005 1.077-2.897 1.077c-.91 0-2.732-1.263-2.732-1.263l.001-.39Z" fill="#E9CFCF"/><path d="M33.133 32.281c-.91-.724-2.536-2.77-4.245-3.588-2.768-1.355-5.972-.96-5.972-.96v.09c-.223.242-1.319 1.319-2.805 1.319-1.468 0-2.582-1.002-2.823-1.263l-.019-.13s-3.534-.414-6.32.941c-1.894.93-3.245 2.958-4.063 3.663A17.856 17.856 0 0 0 19.981 38c5.202-.019 9.882-2.21 13.152-5.719Z" fill="#485B80"/><path d="M27.486 17.414c0 1.92-.581 4.523-1.557 5.93-1.346 1.938-4.38 2.833-5.799 2.833-1.435 0-4.165-.73-5.512-2.445-1.148-1.461-1.844-4.216-1.844-6.316 0-4.567 3.288-8.28 7.356-8.28s7.356 3.713 7.356 8.28" fill="#F8ECEC"/><path d="M28.137 13.622s-.064-2.859-1.695-4.896c-1.14-1.423-4.77-2.456-7.37-2.251 0 0-5.094.203-5.2 3.585-.93.557-1.887 1.518-1.99 3.133-.203 3.25.372 4.104.372 4.104s.817 0 1.022 1.225c0 0 .372.223.408 0 .055-.372-.334-2.154.445-3.788a8.52 8.52 0 0 1 .286-.555c2.554-2.839 10.044-2.545 11.8.56.071.216.123.438.155.664.148 1.06.334 3.063.334 3.063s.279.185.465-.26c.185-.464.148-.91.316-1.04.949-.63.707-3.265.652-3.544Z" fill="#485B80"/></svg>
